(Machine type - MachMotion Lathe Canned Cycles) 
(Filename: C:\Mach4Dev\GCodeFiles\CannedCyclesTestFiles\LatheTest1.tap)
(Generated on 8/21/2015 at 11:59:37 AM)

%
G00 G18 G54 G40 G80 G90.1 (Safe Start Block)
%

(Starting Gcode for Turning Cycle: TurnCycle-0)
([Xi, Zi] = [3, 0]; [Xf, Zf] = [2, -2]; Z- Direction; OD)
(Roughing)

%
G00 G18 G54 G40 G80 G90.1 (Safe Start Block)
%
T0101
G99 (Feed per Revolution)
G96 S500 (Constant Surface Speed)
M03 (Spindle Forward)
M08 (Flood)
G00 X3.1000 Z0.1000 (Rapid move to Clearance Height)
G01 X2.9500 F0.0016
G01 Z-2.0280 F0.0016
G01 X3.0000 Z-2.0530 F0.0016
G00 X3.1000 Z-1.9280
G00 Z0.1000
G00 X3.0500 Z0.1000 (Rapid move to Clearance Height)
G01 X2.9000 F0.0016
G01 Z-2.0030 F0.0016
G01 X2.9500 Z-2.0280 F0.0016
G00 X3.0500 Z-1.9030
G00 Z0.1000
G00 X2.9540 Z0.1000 (Rapid move to Clearance Height)
G01 X2.8540 F0.0016
G01 Z-1.9800 F0.0016
G01 X2.9000 Z-2.0030 F0.0016
G00 X2.9540 Z-1.8800
G00 Z0.1000
G00 X2.9540 Z0.1000 (Rapid move to Clearance Height)
G01 X2.8040 F0.0016
G01 Z-1.9800 F0.0016
G01 X2.8540 Z-1.9800 F0.0016
G00 X2.9540 Z-1.8800
G00 Z0.1000
G00 X2.9040 Z0.1000 (Rapid move to Clearance Height)
G01 X2.7540 F0.0016
G01 Z-1.9800 F0.0016
G01 X2.8040 Z-1.9800 F0.0016
G00 X2.9040 Z-1.8800
G00 Z0.1000
G00 X2.8540 Z0.1000 (Rapid move to Clearance Height)
G01 X2.7040 F0.0016
G01 Z-1.9800 F0.0016
G01 X2.7540 Z-1.9800 F0.0016
G00 X2.8540 Z-1.8800
G00 Z0.1000
G00 X2.8040 Z0.1000 (Rapid move to Clearance Height)
G01 X2.6540 F0.0016
G01 Z-1.9800 F0.0016
G01 X2.7040 Z-1.9800 F0.0016
G00 X2.8040 Z-1.8800
G00 Z0.1000
G00 X2.7540 Z0.1000 (Rapid move to Clearance Height)
G01 X2.6040 F0.0016
G01 Z-1.9800 F0.0016
G01 X2.6540 Z-1.9800 F0.0016
G00 X2.7540 Z-1.8800
G00 Z0.1000
G00 X2.7040 Z0.1000 (Rapid move to Clearance Height)
G01 X2.5540 F0.0016
G01 Z-1.9800 F0.0016
G01 X2.6040 Z-1.9800 F0.0016
G00 X2.7040 Z-1.8800
G00 Z0.1000
G00 X2.6540 Z0.1000 (Rapid move to Clearance Height)
G01 X2.5040 F0.0016
G01 Z-1.9800 F0.0016
G01 X2.5540 Z-1.9800 F0.0016
G00 X2.6540 Z-1.8800
G00 Z0.1000
G00 X2.6040 Z0.1000 (Rapid move to Clearance Height)
G01 X2.4540 F0.0016
G01 Z-1.9800 F0.0016
G01 X2.5040 Z-1.9800 F0.0016
G00 X2.6040 Z-1.8800
G00 Z0.1000
G00 X2.5540 Z0.1000 (Rapid move to Clearance Height)
G01 X2.4040 F0.0016
G01 Z-1.9800 F0.0016
G01 X2.4540 Z-1.9800 F0.0016
G00 X2.5540 Z-1.8800
G00 Z0.1000
G00 X2.5040 Z0.1000 (Rapid move to Clearance Height)
G01 X2.3540 F0.0016
G01 Z-1.9800 F0.0016
G01 X2.4040 Z-1.9800 F0.0016
G00 X2.5040 Z-1.8800
G00 Z0.1000
G00 X2.4540 Z0.1000 (Rapid move to Clearance Height)
G01 X2.3040 F0.0016
G01 Z-1.9800 F0.0016
G01 X2.3540 Z-1.9800 F0.0016
G00 X2.4540 Z-1.8800
G00 Z0.1000
G00 X2.4040 Z0.1000 (Rapid move to Clearance Height)
G01 X2.2540 F0.0016
G01 Z-1.9800 F0.0016
G01 X2.3040 Z-1.9800 F0.0016
G00 X2.4040 Z-1.8800
G00 Z0.1000
G00 X2.3540 Z0.1000 (Rapid move to Clearance Height)
G01 X2.2040 F0.0016
G01 Z-1.9800 F0.0016
G01 X2.2540 Z-1.9800 F0.0016
G00 X2.3540 Z-1.8800
G00 Z0.1000
G00 X2.3040 Z0.1000 (Rapid move to Clearance Height)
G01 X2.1540 F0.0016
G01 Z-1.9800 F0.0016
G01 X2.2040 Z-1.9800 F0.0016
G00 X2.3040 Z-1.8800
G00 Z0.1000
G00 X2.2226 Z0.1000 (Rapid move to Clearance Height)
G01 X2.1226 F0.0016
G01 Z-1.9800 F0.0016
G01 X2.1540 Z-1.9800 F0.0016
G00 X2.2226 Z-1.8800
G00 Z0.1000
G00 X2.2226 Z0.1000 (Rapid move to Clearance Height)
G01 X2.0726 F0.0016
G01 Z-1.9550 F0.0016
G01 X2.1226 Z-1.9800 F0.0016
G00 X2.2226 Z-1.8550
G00 Z0.1000
G00 X2.1400 Z0.1000 (Rapid move to Clearance Height)
G01 X2.0400 F0.0016
G01 Z-1.9387 F0.0016
G01 X2.0726 Z-1.9550 F0.0016
G00 X2.1400 Z-1.8387
G00 Z0.1000
G00 X2.1400 Z0.1000 (Rapid move to Clearance Height)
G01 X1.9900 F0.0016
G01 Z-0.0480 F0.0016
G01 X2.0400 Z-0.0730 F0.0016
G00 X2.1400 Z0.0520
G00 Z0.1000
G00 X2.0900 Z0.1000 (Rapid move to Clearance Height)
G01 X1.9400 F0.0016
G01 Z-0.0230 F0.0016
G01 X1.9900 Z-0.0480 F0.0016
G00 X2.0900 Z0.0770
G00 Z0.1000
G00 X1.9940 Z0.1000 (Rapid move to Clearance Height)
G01 X1.8940 F0.0016
G01 Z0.0000 F0.0016
G01 X1.9400 Z-0.0230 F0.0016
G00 X1.9940 Z0.1000
G00 Z0.1000
(Finishing)

%
G00 G18 G54 G40 G80 G90.1 (Safe Start Block)
%
T0101
G99 (Feed per Revolution)
G96 S500 (Constant Surface Speed)
M03 (Spindle Forward)
M08 (Flood)
G42
G00 X3.1000 Z0.1000
G00 X1.8658
G00 Z0.0141
G01 X1.8658 Z0.0000 F0.0008
G01 X2.0000 Z-0.0671 F0.0008
G01 X2.0000 Z-1.9329 F0.0008
G01 X2.1342 Z-2.0000 F0.0008
G01 X2.1342 Z-2.0000 F0.0008
G01 X2.8658 Z-2.0000 F0.0008
G01 X2.8658 Z-2.0000 F0.0008
G01 X3.0000 Z-2.0671 F0.0008
G00 X3.1000 Z-1.9671
G40
G00 X3.1000 Z0.1000
(End Gcode for Turning Cycle: TurnCycle-0)

%
G00 G18 G54 G40 G80 G90.1 (Safe Start Block)
%

(Starting Gcode for Facing Cycle: FaceCycle-0)
([Xi, Zi] = [3, 0.1]; [Xf, Zf] = [-0.1, 0]; Z- Direction; OD)
(Roughing)

%
G00 G18 G54 G40 G80 G90.1 (Safe Start Block)
%
T0101
G99 (Feed per Revolution)
G96 S500 (Constant Surface Speed)
M03 (Spindle Forward)
M08 (Flood)
G00 X3.1000 Z0.2000 (Rapid move to Clearance Height)
G01 Z0.0500 F0.0016
G01 X-0.0600 F0.0016
G01 X-0.0600 Z0.1000 F0.0016
G00 X0.0400 Z0.2000
G00 X3.1000
G00 X3.1000 Z0.1200 (Rapid move to Clearance Height)
G01 Z0.0200 F0.0016
G01 X-0.0600 F0.0016
G01 X-0.0600 Z0.0500 F0.0016
G00 X0.0400 Z0.1200
G00 X3.1000
(Finishing)

%
G00 G18 G54 G40 G80 G90.1 (Safe Start Block)
%
T0101
G99 (Feed per Revolution)
G96 S500 (Constant Surface Speed)
M03 (Spindle Forward)
M08 (Flood)
G00 X3.1000 Z0.2000
G00 Z0.0000
G00 X3.0410
G01 X3.0000 Z0.0000 F0.0008
G01 X3.0000 Z0.0000 F0.0008
G01 X-0.1000 Z0.0000 F0.0008
G01 X-0.1000 Z0.0000 F0.0008
G01 X-0.1000 Z0.0000 F0.0008
G01 X-0.1000 Z0.1000 F0.0008
G01 X-0.1000 Z0.1000 F0.0008
G01 X-0.1000 Z0.1000 F0.0008
G00 X0.0000 Z0.2000
G40
G00 X3.1000 Z0.2000
(End Gcode for Facing Cycle: FaceCycle-0)

M30
%
(End Gcode file)
%
