N0 (Filename: 10267.TAP)
N1 (Post processor: MachMotion Plasma by SigmaNEST)
N2 (Date: 6/1/2016)
N3 (Start Parameters)
N4 (Material: Type: MS, Thickness: 0.25)
N5 (Plasma: Pierce Height: .2, Pierce Time: .4)
N6 (Plasma: Cut Height: .15)
N7 (Plasma: Arc Voltage: , Amperage: 80)
N8 (End Parameters)
N9 G20 (Units:Inches)
N10 G90
N11 (Part: P52)
N12 M6 T1 (Plasma)
N13 G00 X1.1232 Y0.503 F100.
N14 M63 P60
N15 M3
N16 G01 X1.1585 Y0.4676 F100.
N17 G01 X1.2116 Y0.4146 F100. G09
N18 G01 X1.2116 Y1.3366 F100.
N19 G01 X0.2896 Y1.3366 F100.
N20 G01 X0.2896 Y0.4146 F100.
N21 G01 X1.1916 Y0.4146 F100. G09
N22 M62 P60
N23 M63 P40
N24 G01 X1.2116 Y0.4146 F100. G09
N25 G01 X1.1585 Y0.4676 F100.
N26 M62 P60
N27 M63 P40
N28 G01 X1.1232 Y0.503 F100.
N29 M5
N30 G00 X1.6146 Y-0.0384 F100.
N31 M63 P60
N32 M3
N33 G01 X1.6146 Y0.0116 F100.
N34 G03 X1.5396 Y0.0866 I1.5396 J0.0116 F100.
N35 G01 X-0.0384 Y0.0866 F100.
N36 G01 X-0.0384 Y1.6646 F100.
N37 G01 X1.5396 Y1.6646 F100.
N38 G01 X1.5396 Y0.1066 F100.
N39 M62 P60
N40 M63 P40
N41 G01 X1.5396 Y0.0866 F100.
N42 G03 X1.6146 Y0.0116 I1.6146 J0.0866 F100.
N43 M62 P60
N44 M63 P40
N45 G01 X1.6646 Y0.0116 F100.
N46 M5
N47 (Part: P52)
N48 G00 X1.1232 Y2.2894 F100.
N49 M63 P60
N50 M3
N51 G01 X1.1585 Y2.254 F100.
N52 G01 X1.2116 Y2.201 F100. G09
N53 G01 X1.2116 Y3.123 F100.
N54 G01 X0.2896 Y3.123 F100.
N55 G01 X0.2896 Y2.201 F100.
N56 G01 X1.1916 Y2.201 F100. G09
N57 M62 P60
N58 M63 P40
N59 G01 X1.2116 Y2.201 F100. G09
N60 G01 X1.1585 Y2.254 F100.
N61 M62 P60
N62 M63 P40
N63 G01 X1.1232 Y2.2894 F100.
N64 M5
N65 G00 X1.6146 Y1.748 F100.
N66 M63 P60
N67 M3
N68 G01 X1.6146 Y1.798 F100.
N69 G03 X1.5396 Y1.873 I1.5396 J1.798 F100.
N70 G01 X-0.0384 Y1.873 F100.
N71 G01 X-0.0384 Y3.451 F100.
N72 G01 X1.5396 Y3.451 F100.
N73 G01 X1.5396 Y1.893 F100.
N74 M62 P60
N75 M63 P40
N76 G01 X1.5396 Y1.873 F100.
N77 G03 X1.6146 Y1.798 I1.6146 J1.873 F100.
N78 M62 P60
N79 M63 P40
N80 G01 X1.6646 Y1.798 F100.
N81 M5
N82 (Part: P52)
N83 G00 X1.1232 Y4.0758 F100.
N84 M63 P60
N85 M3
N86 G01 X1.1585 Y4.0404 F100.
N87 G01 X1.2116 Y3.9874 F100. G09
N88 G01 X1.2116 Y4.9094 F100.
N89 G01 X0.2896 Y4.9094 F100.
N90 G01 X0.2896 Y3.9874 F100.
N91 G01 X1.1916 Y3.9874 F100. G09
N92 M62 P60
N93 M63 P40
N94 G01 X1.2116 Y3.9874 F100. G09
N95 G01 X1.1585 Y4.0404 F100.
N96 M62 P60
N97 M63 P40
N98 G01 X1.1232 Y4.0758 F100.
N99 M5
N100 G00 X1.6146 Y3.5344 F100.
N101 M63 P60
N102 M3
N103 G01 X1.6146 Y3.5844 F100.
N104 G03 X1.5396 Y3.6594 I1.5396 J3.5844 F100.
N105 G01 X-0.0384 Y3.6594 F100.
N106 G01 X-0.0384 Y5.2374 F100.
N107 G01 X1.5396 Y5.2374 F100.
N108 G01 X1.5396 Y3.6794 F100.
N109 M62 P60
N110 M63 P40
N111 G01 X1.5396 Y3.6594 F100.
N112 G03 X1.6146 Y3.5844 I1.6146 J3.6594 F100.
N113 M62 P60
N114 M63 P40
N115 G01 X1.6646 Y3.5844 F100.
N116 M5
N117 M30
